icon-themes/breeze_svg/cmd/32/fontworkshapetype.fontwork-open-circle-pour.svg

<svg viewBox="0 0 32 32" xmlns="http://www.w3.org/2000/svg"><path d="m16 8a12 12 0 0 0 -12 12h4a8 8 0 0 1 8-8 8 8 0 0 1 8 8h4a12 12 0 0 0 -12-12zm-8 14v2h16v-2z" fill="#4d4d4d"/></svg>

<svg xmlns="http://www.w3.org/2000/svg" viewBox="0 0 32 32">
 <path 
     style="fill:#4d4d4d" 
     d="M 16 8 A 12 12 0 0 0 4 20 L 8 20 A 8 8 0 0 1 16 12 A 8 8 0 0 1 24 20 L 28 20 A 12 12 0 0 0 16 8 z M 8 22 L 8 24 L 24 24 L 24 22 L 8 22 z "
     />
</svg>
